X: 42621
T: Whinshields Hornpipe
R: polka
M: 2/4
K: Gmajor
d/c/|BG GB|AD DD|GG G/A/B/c/|d>B dg|
ec ce|dG GA/B/|cB AG|FA d>c|
BG GB|AD DD|GG G/A/B/c/|d>B DG|
ec ce|dG GA/B/|c/B/A/G/ Fd|G2 Gd||
g>a g/f/e/d/|BG GA/B/|c/B/c/d/ c/B/A/G/|FA Ad|
g>a g/f/e/d/|BG GG|AA B^c|d3 d|
g/f/g/f/ g/f/e/d/|BG GA/B/|c/B/c/d/ c/B/A/G/|FA Ad/c/|
BG GB|AD DB|c/B/A/G/ Fd|G3 z||

